packages/flame/svg/Icons/icon-usb-plug.svg

<?xml version="1.0" encoding="UTF-8"?>
<svg width="16px" height="16px" viewBox="0 0 16 16" version="1.1" xmlns="http://www.w3.org/2000/svg" xmlns:xlink="http://www.w3.org/1999/xlink">
    <!-- Generator: sketchtool 64 (101010) - https://sketch.com -->
    <title>4DBD4400-F10E-43CC-B5C5-30E0FB94AA7E@1.00x</title>
    <desc>Created with sketchtool.</desc>
    <g id="Symbols" stroke="none" stroke-width="1" fill="none" fill-rule="evenodd">
        <g id="usb-plug" fill="#232A3B">
            <g transform="translate(0.000000, 0.000000)">
                <path d="M8,12 L5,12 C3.8954305,12 3,11.1045695 3,10 L3,8 C2.48716416,8 2.06449284,8.38604019 2.00672773,8.88337887 L2,9 L2,16 L0,16 L0,9 L0,9 C0,7 1.27734375,6 3,6 L3,4 C3,2.8954305 3.8954305,2 5,2 L8,2 L8,12 Z" id="base-1"></path>
                <path d="M16,3 L16,11 L9,11 L9,3 L16,3 Z M13,8 L12,8 L12,9 L13,9 L13,8 Z M13,5 L12,5 L12,6 L13,6 L13,5 Z" id="base-2" opacity="0.700000048"></path>
            </g>
        </g>
    </g>
</svg>

<svg xmlns="http://www.w3.org/2000/svg" viewBox="0 0 16 16"><g id="usb-plug"><path id="base-1" d="M8 12H5a2 2 0 0 1-2-2V8a1 1 0 0 0-.993.883L2 9v7H0V9c0-2 1.277-3 3-3V4a2 2 0 0 1 2-2h3v10z"/><path id="base-2" d="M16 3v8H9V3h7zm-3 5h-1v1h1V8zm0-3h-1v1h1V5z" opacity=".7"/></g></svg>
